_site/img/icons/workingGenius.svg

<svg fill="none" height="128" viewBox="0 0 128 128" width="128" xmlns="http://www.w3.org/2000/svg" xmlns:xlink="http://www.w3.org/1999/xlink"><clipPath id="a"><path d="m0 0h128v128h-128z"/></clipPath><g clip-path="url(#a)"><path d="m107.312 75.25-8.062-4.5c.938-4.5.938-8.8125 0-13.3125l8.062-4.5c.938-.5625 1.313-1.6875.938-2.625-2.062-6.75-5.625-12.75-10.125-17.8125-.75-.75-1.875-.9375-2.8125-.375l-8.0625 4.5c-3.375-2.8125-7.125-5.0625-11.25-6.5625v-9.1875c0-.9375-.75-1.875-1.875-2.0625-6.9375-1.6875-13.875-1.5-20.4375 0-1.125.1875-1.6875 1.125-1.6875 2.0625v9.1875c-4.3125 1.5-8.0625 3.75-11.4375 6.75l-8.0625-4.6875c-.9375-.5625-2.0625-.375-2.8125.375-4.5 5.0625-8.0625 11.0625-10.125 17.8125-.375.9375 0 2.0625.9375 2.625l8.0625 4.5c-.75 4.5-.75 8.8125 0 13.3125l-8.0625 4.5c-.9375.5625-1.3125 1.6875-.9375 2.625 2.0625 6.75 5.625 12.75 10.125 17.8125.75.75 1.875.9375 2.8125.375l8.0625-4.5c3.375 2.8125 7.125 5.0625 11.4375 6.5625v9.187c0 .938.75 1.876 1.6875 2.25 6.9375 1.5 13.875 1.313 20.4375 0 1.125-.374 1.875-1.312 1.875-2.25v-9.187c4.125-1.5 7.875-3.75 11.25-6.5625l8.0625 4.5c.9375.5625 2.0625.375 2.8125-.375 4.687-5.0625 8.063-11.0625 10.313-17.8125.187-.9375-.188-2.0625-1.126-2.625zm-43.312 3.75c-8.4375 0-15-6.5625-15-15 0-8.25 6.5625-15 15-15 8.25 0 15 6.75 15 15 0 8.4375-6.75 15-15 15z" fill="#000"/></g></svg>

<svg width="128" height="128" viewBox="0 0 128 128" fill="none" xmlns="http://www.w3.org/2000/svg">
<g clip-path="url(#clip0)">
<path d="M107.312 75.25L99.25 70.75C100.188 66.25 100.188 61.9375 99.25 57.4375L107.312 52.9375C108.25 52.375 108.625 51.25 108.25 50.3125C106.188 43.5625 102.625 37.5625 98.125 32.5C97.375 31.75 96.25 31.5625 95.3125 32.125L87.25 36.625C83.875 33.8125 80.125 31.5625 76 30.0625V20.875C76 19.9375 75.25 19 74.125 18.8125C67.1875 17.125 60.25 17.3125 53.6875 18.8125C52.5625 19 52 19.9375 52 20.875V30.0625C47.6875 31.5625 43.9375 33.8125 40.5625 36.8125L32.5 32.125C31.5625 31.5625 30.4375 31.75 29.6875 32.5C25.1875 37.5625 21.625 43.5625 19.5625 50.3125C19.1875 51.25 19.5625 52.375 20.5 52.9375L28.5625 57.4375C27.8125 61.9375 27.8125 66.25 28.5625 70.75L20.5 75.25C19.5625 75.8125 19.1875 76.9375 19.5625 77.875C21.625 84.625 25.1875 90.625 29.6875 95.6875C30.4375 96.4375 31.5625 96.625 32.5 96.0625L40.5625 91.5625C43.9375 94.375 47.6875 96.625 52 98.125V107.312C52 108.25 52.75 109.188 53.6875 109.562C60.625 111.062 67.5625 110.875 74.125 109.562C75.25 109.188 76 108.25 76 107.312V98.125C80.125 96.625 83.875 94.375 87.25 91.5625L95.3125 96.0625C96.25 96.625 97.375 96.4375 98.125 95.6875C102.812 90.625 106.188 84.625 108.438 77.875C108.625 76.9375 108.25 75.8125 107.312 75.25ZM64 79C55.5625 79 49 72.4375 49 64C49 55.75 55.5625 49 64 49C72.25 49 79 55.75 79 64C79 72.4375 72.25 79 64 79Z" fill="black"/>
</g>
<defs>
<clipPath id="clip0">
<rect width="128" height="128" fill="white"/>
</clipPath>
</defs>
</svg>
